src/assets/icons/icons-origin/Layers.svg

<svg width="24" height="24" viewBox="0 0 24 24" xmlns="http://www.w3.org/2000/svg">
  <path d="M3.23999 7.29L11.76 11.92C11.8339 11.9594 11.9163 11.98 12 11.98C12.0837 11.98 12.1661 11.9594 12.24 11.92L20.76 7.29C20.8377 7.25161 20.9024 7.19111 20.9459 7.1161C20.9893 7.04109 21.0097 6.95491 21.0043 6.86837C20.999 6.78184 20.9682 6.69882 20.9158 6.62972C20.8635 6.56062 20.7919 6.50854 20.71 6.48L12.19 3C12.0683 2.94999 11.9317 2.94999 11.81 3L3.28999 6.48C3.20812 6.50854 3.13651 6.56062 3.08414 6.62972C3.03178 6.69882 3.00099 6.78184 2.99565 6.86837C2.99031 6.95491 3.01065 7.04109 3.05412 7.1161C3.09759 7.19111 3.16225 7.25161 3.23999 7.29Z" fill="currentColor" />
  <path d="M20.71 10.66L18.88 9.88L12.24 13.49C12.1661 13.5294 12.0837 13.55 12 13.55C11.9163 13.55 11.8339 13.5294 11.76 13.49L5.12001 9.88L3.29001 10.66C3.21251 10.7007 3.14761 10.7618 3.10233 10.8367C3.05705 10.9116 3.03311 10.9975 3.03311 11.085C3.03311 11.1725 3.05705 11.2584 3.10233 11.3333C3.14761 11.4082 3.21251 11.4693 3.29001 11.51L11.81 16.41C11.8823 16.4542 11.9653 16.4776 12.05 16.4776C12.1347 16.4776 12.2178 16.4542 12.29 16.41L20.81 11.51C20.8838 11.4609 20.9425 11.3923 20.9797 11.3119C21.0169 11.2315 21.0311 11.1423 21.0208 11.0543C21.0104 10.9663 20.9759 10.8829 20.9211 10.8133C20.8662 10.7437 20.7932 10.6906 20.71 10.66Z" fill="currentColor" />
  <path d="M20.71 15.1L19.15 14.42L12.24 18.18C12.1661 18.2194 12.0837 18.24 12 18.24C11.9163 18.24 11.8339 18.2194 11.76 18.18L4.84999 14.42L3.28999 15.1C3.21029 15.1413 3.14348 15.2038 3.09684 15.2805C3.05021 15.3572 3.02554 15.4452 3.02554 15.535C3.02554 15.6248 3.05021 15.7128 3.09684 15.7895C3.14348 15.8663 3.21029 15.9287 3.28999 15.97L11.81 20.97C11.8839 21.0094 11.9663 21.03 12.05 21.03C12.1337 21.03 12.2161 21.0094 12.29 20.97L20.81 15.97C20.886 15.9202 20.9466 15.8503 20.9852 15.768C21.0237 15.6858 21.0387 15.5944 21.0283 15.5042C21.0179 15.4139 20.9826 15.3283 20.9264 15.257C20.8702 15.1856 20.7953 15.1313 20.71 15.1Z" fill="currentColor" />
</svg>

<svg width="24" height="24" viewBox="0 0 24 24" xmlns="http://www.w3.org/2000/svg">
  <path d="m3.24 7.29 8.52 4.63a.51.51 0 0 0 .48 0l8.52-4.63a.44.44 0 0 0-.05-.81L12.19 3a.5.5 0 0 0-.38 0L3.29 6.48a.44.44 0 0 0-.05.81Z" fill="currentColor"/>
  <path d="m20.71 10.66-1.83-.78-6.64 3.61a.51.51 0 0 1-.48 0L5.12 9.88l-1.83.78a.48.48 0 0 0 0 .85l8.52 4.9a.46.46 0 0 0 .48 0l8.52-4.9a.48.48 0 0 0-.1-.85Z" fill="currentColor"/>
  <path d="m20.71 15.1-1.56-.68-6.91 3.76a.51.51 0 0 1-.48 0l-6.91-3.76-1.56.68a.49.49 0 0 0 0 .87l8.52 5a.51.51 0 0 0 .48 0l8.52-5a.49.49 0 0 0-.1-.87Z" fill="currentColor"/>
</svg>
